X:680
T:Skye Glen Waltz
C:Blair Douglas
S:Hamish Napier, Glasgow 26/6/04
Z:Nigel Gatherer
M:3/4
L:1/8
K:G
G>B | d3 Bd>e | d B3 A>B | A G2 de>c | d4
G>B | d3 Bd>e | d B3 A>B | A G2 DE>G | D4
G>B | d3 Bd>e | d B3 A>B | A G2 de>c | d4
B>d | g3 cd>e | d G3 A>B | A3   BG>F | G4 :|
B>d | g3 cd>e | d G3 A>B | A G2 de>c | d4
B>d | g3 cd>e | d G3 A>B | A G3  g>B | A4
B>d | g3 cd>e | d G3 A>B | A G2 de>c | d4
B>d | g3 cd>e | d G3 A>B | A3   BG>F | G4 
B>d | g3 cd>e | d G3 A>B | A G2 de>c | d4
B>d | g3 cd>e | d G3 A>B | A G3  g>B | A4
B>d | g3 cd>e | d G3 A>B | A3   BG>F | G4 |]
